svgs/sharp-solid/dial.svg

<svg xmlns="http://www.w3.org/2000/svg" viewBox="0 0 576 512"><!--! Font Awesome Pro 6.6.0 by @fontawesome - https://fontawesome.com License - https://fontawesome.com/license (Commercial License) Copyright 2024 Fonticons, Inc. --><path d="M320 0l0 64-64 0 0-64 64 0zM128 64l0 64-64 0 0-64 64 0zm384 0l0 64-64 0 0-64 64 0zm0 192l64 0 0 64-64 0 0-64zm0 192l0 64-64 0 0-64 64 0zM64 448l64 0 0 64-64 0 0-64zM0 256l64 0 0 64L0 320l0-64zm175.1-81.8c56.7-56.7 145.4-62 208-15.7L271.3 270.4l-17 17 33.9 33.9 17-17L417.1 192.4c46.2 62.6 41 151.3-15.7 208c-62.5 62.5-163.8 62.5-226.3 0s-62.5-163.8 0-226.3z"/></svg>

<svg xmlns="http://www.w3.org/2000/svg" viewBox="0 0 576 512"><!--! Font Awesome Pro 6.4.0 by @fontawesome - https://fontawesome.com License - https://fontawesome.com/license (Commercial License) Copyright 2023 Fonticons, Inc. --><path d="M320 0V64H256V0h64zM128 64v64H64V64h64zm384 0v64H448V64h64zm0 192h64v64H512V256zm0 192v64H448V448h64zM64 448h64v64H64V448zM0 256H64v64H0V256zm175.1-81.8c56.7-56.7 145.4-62 208-15.7L271.3 270.4l-17 17 33.9 33.9 17-17L417.1 192.4c46.2 62.6 41 151.3-15.7 208c-62.5 62.5-163.8 62.5-226.3 0s-62.5-163.8 0-226.3z"/></svg>
